picto/waiting-room.svg

<svg class="color-immutable" width="24" height="24" viewBox="0 0 24 24" fill="none" xmlns="http://www.w3.org/2000/svg"><path d="M0 22.5V1.5C0 0.675 0.675 0 1.5 0H22.5C23.325 0 24 0.675 24 1.5V22.5C24 23.325 23.325 24 22.5 24H1.5C0.675 24 0 23.325 0 22.5Z" fill="#2D327D"/><path d="M7.126 16.5H3.376C3.168 16.5 3 16.668 3 16.874V21H3.75V17.251H6.75V21H7.5V16.874C7.5 16.668 7.332 16.5 7.126 16.5Z" fill="white"/><path d="M9.851 14.9C9.802 14.527 9.484 14.249 9.107 14.249H6.375V11.605L7.713 13.584C7.831 13.759 8.029 13.865 8.241 13.865C8.593 13.865 8.878 13.58 8.878 13.228C8.878 13.101 8.84 12.975 8.769 12.871L6.017 8.799C5.71 8.344 5.198 8.073 4.65 8.073C3.739 8.073 3 8.812 3 9.724V15C3 15.413 3.336 15.75 3.75 15.75H8.414L9.025 20.339C9.076 20.722 9.401 21.007 9.787 21.007C10.211 21.007 10.556 20.662 10.556 20.238C10.556 20.205 10.554 20.17 10.549 20.137L9.851 14.9Z" fill="white"/><path d="M20.249 15.336H17.943V14.887C17.943 14.536 17.657 14.25 17.305 14.25H15.843C15.492 14.25 15.206 14.536 15.206 14.887V15.336H12.9C12.486 15.336 12.149 15.674 12.149 16.087V20.249C12.149 20.663 12.485 20.999 12.9 20.999H20.249C20.664 21 21 20.664 21 20.25V16.088C21 15.674 20.664 15.336 20.249 15.336ZM17.419 15.336H15.732V14.775H17.419V15.336Z" fill="white"/><path d="M18.038 9.07501C19.756 9.07501 21.15 7.68101 21.15 5.96301C21.15 4.24401 19.757 2.85001 18.038 2.85001C16.319 2.85001 14.925 4.24401 14.925 5.96301C14.925 7.68101 16.319 9.07501 18.038 9.07501ZM18.038 3.56301C19.363 3.56301 20.438 4.63801 20.438 5.96301C20.438 7.28701 19.363 8.36201 18.038 8.36201C16.713 8.36201 15.637 7.28701 15.637 5.96301C15.637 4.63801 16.713 3.56301 18.038 3.56301Z" fill="white"/><path d="M19.395 4.81401C19.43 4.77801 19.45 4.73001 19.45 4.68001C19.45 4.57701 19.366 4.49301 19.262 4.49301C19.212 4.49301 19.165 4.51301 19.129 4.54801L18.214 5.46301L18.48 5.72801L19.395 4.81401Z" fill="white"/><path d="M17.951 6.25901L18.215 5.99301L16.77 4.54801C16.736 4.51301 16.687 4.49301 16.637 4.49301C16.534 4.49301 16.45 4.57701 16.45 4.68001C16.45 4.73001 16.47 4.77701 16.505 4.81401L17.951 6.25901Z" fill="white"/><path d="M4.5 7.57501C5.327 7.57501 6 6.90201 6 6.07501C6 5.24701 5.328 4.57501 4.5 4.57501C3.671 4.57501 3 5.24701 3 6.07501C3 6.90201 3.672 7.57501 4.5 7.57501Z" fill="white"/></svg>

<svg class="color-immutable" width="24" height="24" viewBox="0 0 24 24" fill="none" xmlns="http://www.w3.org/2000/svg"><g clip-path="url(#a)"><path d="M0 22.5v-21C0 .675.675 0 1.5 0h21c.825 0 1.5.675 1.5 1.5v21c0 .825-.675 1.5-1.5 1.5h-21C.675 24 0 23.325 0 22.5Z" fill="#2D327D"/><path d="M7.126 16.5h-3.75a.375.375 0 0 0-.376.374V21h.75v-3.749h3V21h.75v-4.126a.375.375 0 0 0-.374-.374Z" fill="#fff"/><path d="M9.851 14.9a.749.749 0 0 0-.744-.651H6.375v-2.644l1.338 1.979a.638.638 0 1 0 1.056-.713L6.017 8.799A1.65 1.65 0 0 0 3 9.724V15c0 .413.336.75.75.75h4.664l.611 4.589a.768.768 0 1 0 1.524-.202L9.851 14.9ZM20.249 15.336h-2.306v-.449a.638.638 0 0 0-.638-.637h-1.462a.638.638 0 0 0-.637.637v.449H12.9a.753.753 0 0 0-.751.751v4.162c0 .414.336.75.751.75h7.349A.749.749 0 0 0 21 20.25v-4.162a.752.752 0 0 0-.751-.752Zm-2.83 0h-1.687v-.561h1.687v.561ZM18.038 9.075a3.113 3.113 0 1 0-.002-6.226 3.113 3.113 0 0 0 .002 6.226Zm0-5.512a2.4 2.4 0 1 1-.001 4.801 2.4 2.4 0 0 1 .001-4.801Z" fill="#fff"/><path d="M19.395 4.814a.188.188 0 1 0-.266-.266l-.915.915.266.265.915-.914ZM17.951 6.259l.264-.266-1.445-1.445a.187.187 0 0 0-.32.132c0 .05.02.097.055.134l1.446 1.445ZM4.5 7.575a1.5 1.5 0 1 0-.001-2.999A1.5 1.5 0 0 0 4.5 7.575Z" fill="#fff"/></g><defs><clipPath id="a"><path fill="#fff" d="M0 0h24v24H0z"/></clipPath></defs></svg>
